X:1
T: The Field of Flowers
C:
R:Jig
Q:180
K:A
M:6/8
L:1/16
b2|a2g2f2 e2c2A2|d2c2c2 c4b2|a2g2f2 e2c2A2|c2B2B2 B4b2|a2g2f2 e2c2B2|c2f2g2 a2c'2b2|a2g2f2 e2c2B2|c2A2A2 A4b2|
a2g2f2 e2c2A2|d2c2c2 c4b2|a2g2f2 e2c2A2|c2B2B2 B4b2|a2g2f2 e2c2B2|c2f2g2 a2c'2b2|a2g2f2 e2c2B2|c2A2A2 A4e2|
abc'2b2 a2e2d2|c2e2e2 e4f2|abc'2b2 a2f2ae|f2b2a2 b4e2|abc'2a2 b2e2d2|c2f2g2 a2c'2b2|a2g2f2 e2c2B2|c2A2A2 A4e2|
abc'2b2 a2e2d2|c2e2e2 e4f2|abc'2b2 a2f2ae|f2b2a2 b4e2|abc'2a2 b2e2d2|c2f2g2 a2c'2b2|a2g2f2 e2c2B2|c2A2A2 A4||
